X:1
T:Maulgré les Turcqs
T:Maulgré les Turcqs
T:Jacob Buus
T:Source : Le Parangon des Chansons---IXième Livre---Lyon---J.Moderne-1541. Editor : André Vierendeels (10/12/14).
C:Jacob Buus
%%score [ 1 2 3 4 ]
L:1/8
Q:1/4=100
M:2/2
K:F
V:1 treble nm="Superius" snm="S"
V:2 treble-8 nm="Tenor 1" snm="T 1"
V:3 treble-8 nm="Tenor 2" snm="T 2"
V:4 bass nm="Bassus" snm="B"
V:1
 z4 G4 | G2 G2 D3 E | FEFG A2 GF | ED E2 D4 | D4 A4 | z4 z2 G2- | G2 G2 F2 D2 | G4 C2 c2 | %8
w: Maul-|gré les Turcqs et|les in- tel- li- gen- * *||ces, _|maul-|* gré les Turcqs,|maul- gré les|
 c2 c2 G3 A | B3 A/G/ F2 B2 | A2 G4 F2 | G4 z2 A2- | A2 A2 G4 | F4 z2 A2 | A2 A2 B2 G2 | %15
w: Turcqs et les in-||gen- * *|ces, dieu|_ a par-|mis par|sa sain- cte cle-|
 (3:2:2A4 B2 c2 d2- | d2 c2 d4- | d8 | z2 G2 d4- | d2 c2 d2 B2 | A8 | z2 D2 A4- | A2 G2 A2 F2 | %23
w: men- * * *|* * ce,|_|que main-|* te nant a-|vons,|que main-|* te- nant a-|
 E3 F G2 G2 | FE FG A2 G2 | A4 A4- | A4 z4 | z2 A2 B2 G2 | A2 A2 (3:2:2B4 c2 | d2 c4 B2- | %30
w: vons _ _ vray|Em- * * * * *|pe- reur,|_|ceulx qui di-|soy- ent quelz _|se- roit- Em-|
 B2 A2 B2 d2 |: c2 B2 A4 | z4 z2 G2- | G2 F2 E2 D2 | E4 D2 G2 | F3 G A2 B2 | A2 G4 F2 |1 %37
w: * pe- reur ho-|ne- ste- ment,|ho-|* ne- ste- ment|cou- vrent leur|pa- * * *|ci- en- *|
[M:2/4] G2 d2 :|2[M:2/2] G8 || z2 G2 G3 A |"^-natural" B8 |] %41
w: ce, ho-|ce,|pa- ci- en-|ce.|
V:2
 c4 c2 c2 | G3 A BABc | d2 cB A2 d2- | d2 c2 d2 g2 | g2 g2 f2 ed | c2 f2 ed d2- | d2 c2 d2 f2 | %7
w: Maul- gré les|Turcqs et les in- tel- li-|gen- * * * *|* * ces, maul-|gré les Turcqs et _|les in- tel- li- gen-||
 e8- | e4 z2 g2 | g2 g2 d3 e | ffcc d4 |"^b" B2 d2 e2 c2 |"^b" (3:2:2f4 f2 e2 c2 | d2 A3 G AB | %14
w: ces,|_ maul-|gré les Turcqs et|les in- tel- li- gen-|ces, dieu a par-|mis par sa sain-|cte cle- * men- *|
 cd ef g4 | c2 a4 g2 |"^#""^#" ag fe f g2 f | g4 z2 d2 | g6 f2 | g2 e2 d2 g2- | g2 f4 ef | %21
w: |ce, cle- *|men- * * * * * *|ce, que|main- te-|nant a- vons vray|_ Em- * *|
 g2 d2 (3:2:2f4 e2 | d2 G2 d4- | d2 c2 d2 B2 | AG AB c2 d2 | e4 f2 d2 | e4 d2 g2- | g2 f2 gf de | %28
w: ||* pe- reur, vray|Em- * * * * *||pe- reur, ceulx|_ qui di- * * *|
 fg ef g4 | (3:2:2f4 g2 a2 e2 | f4 d4 |: z2 g2 f4 | e2 d4 c2 | B2 AB c2 d2- | d2 c2 B2 d2- | %35
w: soy- * ent _ quelz|se- * roit Em-|pe- reur,|ho- ne-|ste- ment, ho-|ne- ste- * * *|* * ment au-|
 de f4 f2 | _e2 c2 d4 |1[M:2/4] d4 :|2[M:2/2] B4 z2 d2 || _e8 | d8 |] %41
w: * * * ront|pa- ci- en-|ce,|ce, pa-|cien-|ce.|
V:3
 z8 | G4 G2 G2 | D3 E FEFG | A2 A2 D2 B2 | B2 B2 A4 | A3 B c2 B2 | G2 G2 A4 | z2 c2 c2 c2 | %8
w: |Maul- gré les|Turcqs et les in- tel- li-|gen- ces, et les|in- tel- li-|gen- * ce, maul-|gré les Turcqs,|et les in-|
 A2 G2 c4 | B6 AG | F2 G2 A4 | G2 B2 c2 A2 | (3:2:2d4 c2 B2 G2 | A2 d2 d2 c2 | c4 Bc de | %15
w: tel- li- gen-|||ces, dieu a par-|mis par sa sain-|cte cle- men- *||
 f4 e2 d2 | e4 d2 A2 | B6 A2 | B2 G2 A4 | G2 A2 B2 G2 | d6 c2 | d2 B2 A4 | B2 c2 A4- | A4 BA Bc | %24
w: ||ce, que|main- * te-|nant a- vons vray|Em- pe-|reur, que main-|te- nant a-|* vons _ _ _|
 (3:2:2d4 d2 e2 d2- |"^#" d2 c2 d4 | A4 B2 G2 | A4 z2 B2 | c2 c2 B4 | A4 A2 B2 | c2 c2 B4 |: %31
w: _ vray Em- *|||reur, ceulx|qui di- soyent|quelz- se- roit|Em- pe- reur,|
 z4 z2 d2 | c2 B2 A2 z2 | z2 d2 c2 B2 | A4 F2 GA | Bc d2 c2 d2 | cB AG A4 |1[M:2/4] G4 :|2 %38
w: ho-|ne- ste- ment,|ho- ne- ste-|ment cou- * *|* * * leur pa-|ti- * * * en-|ce,|
[M:2/2] G8- || G8- | G8 |] %41
w: ce.|_||
V:4
 z8 | z8 | z8 | z4 z2 G,2 | G,2 G,2 (3:2:2D,4 E,2 | F,E,F,G, A,2 G,F, |"^#" E,D, E,2 D,4 | C,4 z4 | %8
w: |||Maul-|gré les Turcqs et|les in- tel- li- gen- * *|* * * ces,|_|
 z2 C,2 C,4 | G,,3 A,, B,,A,,B,,C, |"^b" D,2 E,2 D,4 |"^b" G,,2 G,2 E,2 F,2 |"^b" D,4 E,4 | %13
w: maul- gré|Turcqs et les in- tel- li-|gen- * *|ces, dieu a par-||
 D,4 z2 A,2 | A,2 A,2 G,2 G,2 | F,3 G, A,2 B,2 | A,4 D,2 D,2 | G,6 F,2 | G,2 E,2 D,4 | z8 | %20
w: mis par|sa sain- cte cle-|men _ _ _|_ ce, que|main- te-|nant a- vons,||
 z4 z2 C,2 | G,4 F,4 | G,2 E,2 D,E, F,G, | A,4 G,4 | D,4 A,2 B,2 | A,4 D,4 | z4 D,2 E,2 | %27
w: que|main- te-|nant a- vons _ _ _|_ vray|Em- * *|pe- reur,|ceulx qui|
 C,2 D,2 z2 G,2 | F,2 A,2 G,4 | D,2 F,4 G,2 | F,2 F,2 B,,2 B,2 |:"^#" F,2 G,2 D,4 | %32
w: di- soyent quelz-|se- roit Em|pe- reur ho-|ne- ste- ment, ho-|ne- ste- ment|
 z2 G,2 F,2 E,2 | D,4 z4 | z2 A,,2 B,,2 G,,2 | D,3 E, F,2 B,,2 |"^b" C,2 E,2 D,4 |1 %37
w: ho- ne- ste-|ment,|ho- ne- ste|ment _ _ au-|ront pa- cien-|
[M:2/4] G,2 B,2 :|2[M:2/2] G,,6 G,,2 || C,4 C,4 | G,,8 |] %41
w: ce, ho-|ce, pa-|ci- en-|ce.|

